X:14921
T:Scatter the Mud
T:White Crow, The
R:jig
H:See also "Frehan's #2", #168
D:Davy Spillane: Shadow Hunter
Z:id:hn-jig-112
M:6/8
K:Ador
eAA BAA|eAA ABd|eAA BAA|edB GBd|eAA BAA|eAA ABA|GAB d2e|dBA ABd:|
eaa g2e|dBA GBd|eaa g2a|bag a2g|eaa bag|edB GBA|GAB d2e|dBA ABd:|
